!!!OTL: Kueherlied.
!!!OTL-incipit: WER SO EIN FAULES MAEDCHEN HAT
!!!ARE: Europa, Mitteleuropa, Deutschland, Harz
!!!SCT: Z1290
!!!TXL: @@DE
!!!YEM: Copyright 1995, estate of Helmut Schaffrath.
**kern	**text
*ICvox	*
*M2/4	*
*k[f#]	*
*G:	*
!LO:TX:a:t=Vom Harʒe.	!
{8d	Wer
=1	=1
8g	ſo
8g	ein
8g	fau-
8g	-les
=2	=2
8f#	Mäd-
8g	-chen
8a}	hat,
{8a	der
=3	=3
8f#	kann
8f#	wohl
8a	lu-
8a	-ſtig
=4	=4
4d}	ſeyn!
{4dd	der
=5	=5
8b	kann
8b	wohl
8dd	lu-
8dd	-ſtig
=6	=6
4g	ſeyn!
8r}	.
{8dd	das
=7	=7
8b	ſchläft
8dd	wohl
8dd	al-
8dd	-le
=8	=8
(8eeL	Mor-
8ddJ)	.
4dd	-gen,
=9	=9
(8eeL	Mor-
8ddJ)	.
8dd}	-gen,
{8dd	bis
=10	=10
8b	daß
8b	die
8dd	Son-
8dd	-ne
=11	=11
4b}	ſcheint,
{4dd	bis
=12	=12
8b	daß
8b	die
8dd	Son-
8dd	-ne
=13	=13
4g	ſcheint!
8r}	.
==	==
!!!AGN: Handwerker -, Bauern - Lied
!!!ONB: ESAC (Essen Associative Code) Database: ZUCCAL
!!!AMT: simple duple
!!!AIN: vox
!!!EED: Helmut Schaffrath
!!!EEV: 1.0
!!!GTL: VII. Jagd-, Bunkt- und GewerksLieder.
!!!URL-scan: https://www.digitale-sammlungen.de/de/view/bsb11160573?page=530
!!!ENC: Anna Maria Matuszewska
!!!EEV: 2025/02/07
*-	*-
